!!!OTL: ES HET E BAUR E TOECHTERLI
!!!ARE: Europa, Mitteleuropa, Schweiz
!!!SCT: Z0084
!!!YEM: Copyright 1995, estate of Helmut Schaffrath.
**kern
*ICvox
*Ivox
*M2/4
*k[f#]
*G:
{8d
=1
8.g
16f#
8g
8a
=2
4b
4a
=3
4g
8r}
{8dd
=4
8dd
8a
8a
8dd
=5
4ee
4cc#
=6
4dd
8r}
{8b
=7
8.cc
16dd
8ee
16ee
16dd
=8
8cc
16cc
16ee
8dd
16r}
{16cc
=9
8.b
16a
8g
8a
=10
4b
4a
=11
4g
8gg}
==
!!!AGN: Sagen - Lied, Romanze, Juengling zieht in den Krieg; Liebe
!!!ONB: ESAC (Essen Associative Code) Database: ZUCCAL
!!!AMT: simple duple
!!!AIN: vox
!!!EED: Helmut Schaffrath
!!!EEV: 1.0
*-
